X:1
T: The Eye Surgeon
C:
R:Reel
Q:232
K:D
M:4/4
L:1/8
|:FE|"D"D2FA "Bm"cd ef|"G"df ed "A7"g2 fg|"D"af "A7"dc Ag fe|"Bm"fd fe "G"dB "A7"AG|
"D"FD FA "A7"CD EF|"Bm"df ed "G"g2fg|"D"ag fe "Bm"dc BA|"G"Gg "A7"fe "D"d2:|
|:cd|"A"eA "D"fA "A"eA "D"fA|"Em/G"ag fe "D/F#"dAA2|"Bm"de fg fe dc|"Em/G"ag fe "A7"AB AG|
"D"FD FA "A7"CD EF|"Bm"df ed "G"g2fg|"D"ag fe "Bm"dc BA|"G"Gg "A7"fe "D"d2:|
